X: 11727
T: Elav The Terrible
R: reel
M: 4/4
K: Adorian
|:A2 Be ABee|efde ABee|Bddd GBdB|BBGd GBeG|
A2 Be ABee|efde ABee|Bddd GBdB|BBdd eG A2:|
|:g2 ea egge|efgg effd|g2 ea egge|Bddd GBdG|
g2 ea egge|efgg effd|eeAe BddG|BBdd eG A2:|

